svgs/focus_todo.svg

<svg width="192" height="192" viewBox="0 0 192 192" fill="none" xmlns="http://www.w3.org/2000/svg"><path d="M105 25c0 5.34-5.24 11.264-7.723 13.771a1.78 1.78 0 0 1-2.554 0C92.239 36.264 87 30.341 87 25a9 9 0 1 1 18 0ZM87 167c0-5.341 5.24-11.264 7.723-13.771a1.779 1.779 0 0 1 2.554 0C99.761 155.736 105 161.659 105 167a9 9 0 0 1-9 9 9 9 0 0 1-9-9Zm80-62c-5.341 0-11.264-5.24-13.771-7.723a1.779 1.779 0 0 1 0-2.554C155.736 92.239 161.659 87 167 87a9 9 0 0 1 9 9 9 9 0 0 1-9 9ZM25 87c5.34 0 11.264 5.24 13.771 7.723a1.78 1.78 0 0 1 0 2.554C36.264 99.761 30.341 105 25 105a9 9 0 1 1 0-18Zm127.569-34.84c-3.777 3.776-11.67 4.26-15.199 4.277a1.78 1.78 0 0 1-1.806-1.807c.017-3.53.5-11.422 4.277-15.199a9 9 0 1 1 12.728 12.728ZM39.431 139.841c3.777-3.777 11.67-4.26 15.2-4.277a1.78 1.78 0 0 1 1.805 1.806c-.017 3.529-.5 11.422-4.277 15.199a9 9 0 1 1-12.728-12.728Zm100.41 12.728c-3.777-3.777-4.26-11.67-4.277-15.199a1.78 1.78 0 0 1 1.806-1.806c3.529.017 11.422.5 15.199 4.277a9.001 9.001 0 0 1 0 12.728 9.001 9.001 0 0 1-12.728 0ZM52.16 39.431c3.776 3.777 4.26 11.67 4.277 15.2a1.78 1.78 0 0 1-1.807 1.805c-3.53-.017-11.422-.5-15.199-4.277a9 9 0 0 1 0-12.727 9 9 0 0 1 12.728 0Z" fill="#000"/><path d="m80 96 16 16 32-32" stroke="#000" stroke-width="12" stroke-linecap="round" stroke-linejoin="round"/></svg>

<?xml version="1.0" encoding="UTF-8" standalone="no"?><svg xmlns:android="http://schemas.android.com/apk/res/android" height="192" width="192" xmlns="http://www.w3.org/2000/svg">
  <path d="M105,25C105,30.341 99.761,36.264 97.277,38.771C96.564,39.492 95.436,39.492 94.723,38.771C92.239,36.264 87,30.341 87,25C87,20.029 91.029,16 96,16C100.971,16 105,20.029 105,25Z" fill="#000000"/>
  <path d="M87,167C87,161.659 92.239,155.736 94.723,153.229C95.436,152.508 96.564,152.508 97.277,153.229C99.761,155.736 105,161.659 105,167C105,171.971 100.971,176 96,176C91.029,176 87,171.971 87,167Z" fill="#000000"/>
  <path d="M167,105C161.659,105 155.736,99.761 153.229,97.277C152.508,96.564 152.508,95.436 153.229,94.723C155.736,92.239 161.659,87 167,87C171.971,87 176,91.029 176,96C176,100.971 171.971,105 167,105Z" fill="#000000"/>
  <path d="M25,87C30.341,87 36.264,92.239 38.771,94.723C39.492,95.436 39.492,96.564 38.771,97.277C36.264,99.761 30.341,105 25,105C20.029,105 16,100.971 16,96C16,91.029 20.029,87 25,87Z" fill="#000000"/>
  <path d="M152.569,52.159C148.792,55.936 140.899,56.419 137.37,56.437C136.356,56.441 135.559,55.644 135.564,54.63C135.581,51.101 136.064,43.208 139.841,39.431C143.355,35.917 149.054,35.917 152.569,39.431C156.083,42.946 156.083,48.645 152.569,52.159Z" fill="#000000"/>
  <path d="M39.431,139.841C43.208,136.064 51.101,135.581 54.63,135.564C55.644,135.559 56.441,136.356 56.436,137.37C56.419,140.899 55.936,148.792 52.159,152.569C48.645,156.083 42.946,156.083 39.431,152.569C35.917,149.054 35.917,143.355 39.431,139.841Z" fill="#000000"/>
  <path d="M139.841,152.569C136.064,148.792 135.581,140.899 135.564,137.37C135.559,136.356 136.356,135.559 137.37,135.564C140.899,135.581 148.792,136.064 152.569,139.841C156.083,143.355 156.083,149.054 152.569,152.569C149.054,156.083 143.355,156.083 139.841,152.569Z" fill="#000000"/>
  <path d="M52.159,39.431C55.936,43.208 56.419,51.101 56.437,54.63C56.441,55.644 55.644,56.441 54.63,56.436C51.101,56.419 43.208,55.936 39.431,52.159C35.917,48.645 35.917,42.946 39.431,39.431C42.946,35.917 48.645,35.917 52.159,39.431Z" fill="#000000"/>
  <path d="M80,96L96,112L128,80" fill="#000000" fill-opacity="0.0" stroke="#000000" stroke-linecap="round" stroke-linejoin="round" stroke-width="12"/>
</svg>
